symbolic/48x48/places/folder-yellow-sync.svg

<svg xmlns="http://www.w3.org/2000/svg" width="48" height="48" version="1">
 <rect style="opacity:0.2" width="40" height="26" x="4" y="17" rx="2" ry="2"/>
 <path style="fill:#b58f1b" d="M 4,34 C 4,35.108 4.892,36 6,36 H 42 C 43.108,36 44,35.108 44,34 V 12 C 44,10.892 43.108,10 42,10 H 24 C 21,10 20,6 17,6 H 6 C 4.892,6 4,6.892 4,8"/>
 <rect style="opacity:0.2" width="40" height="26" x="4" y="15" rx="2" ry="2"/>
 <rect style="fill:#b2bfd9" width="36" height="16" x="6" y="13" rx="2" ry="2"/>
 <rect style="fill:#e2b322" width="40" height="26" x="4" y="16" rx="2" ry="2"/>
 <path style="opacity:0.1;fill:#f4f4f7" d="M 6,6 C 4.892,6 4,6.892 4,8 V 9 C 4,7.892 4.892,7 6,7 H 17 C 20,7 21,11 24,11 H 42 C 43.108,11 44,11.892 44,13 V 12 C 44,10.892 43.108,10 42,10 H 24 C 21,10 20,6 17,6 Z"/>
 <path style="fill:#4f3e0c" d="M 24 22 C 22.49031 22.0032 21.02212 22.494458 19.814453 23.400391 L 21.246094 24.832031 C 22.06273 24.290888 23.020343 24.001566 24 24 C 26.419003 24 28.43717 25.717696 28.900391 28 L 27 28 L 30 33 L 33 28 L 30.919922 28 C 30.433225 24.609369 27.52529 22 24 22 z M 18 25 L 15 30 L 17.080078 30 C 17.566775 33.390631 20.47471 36 24 36 C 25.50969 35.9968 26.97788 35.505542 28.185547 34.599609 L 26.753906 33.167969 C 25.93727 33.709112 24.979657 33.998434 24 34 C 21.580997 34 19.56283 32.282304 19.099609 30 L 21 30 L 18 25 z"/>
</svg>

<svg xmlns="http://www.w3.org/2000/svg" width="48" height="48" version="1"><rect style="opacity:.2" width="40" height="26" x="4" y="17" rx="2" ry="2"/><path style="fill:#b58f1b" d="M4 34c0 1.108.892 2 2 2h36c1.108 0 2-.892 2-2V12c0-1.108-.892-2-2-2H24c-3 0-4-4-7-4H6c-1.108 0-2 .892-2 2"/><rect style="opacity:.2" width="40" height="26" x="4" y="15" rx="2" ry="2"/><rect style="fill:#b2bfd9" width="36" height="16" x="6" y="13" rx="2" ry="2"/><rect style="fill:#e2b322" width="40" height="26" x="4" y="16" rx="2" ry="2"/><path style="opacity:.1;fill:#f4f4f7" d="M6 6c-1.108 0-2 .892-2 2v1c0-1.108.892-2 2-2h11c3 0 4 4 7 4h18c1.108 0 2 .892 2 2v-1c0-1.108-.892-2-2-2H24c-3 0-4-4-7-4z"/><path style="fill:#4f3e0c" d="M24 22a7 7 0 0 0-4.186 1.4l1.432 1.432A5 5 0 0 1 24 24a5.002 5.002 0 0 1 4.9 4H27l3 5 3-5h-2.08c-.487-3.39-3.395-6-6.92-6zm-6 3-3 5h2.08c.487 3.39 3.395 6 6.92 6a7 7 0 0 0 4.186-1.4l-1.432-1.432A5 5 0 0 1 24 34a5.002 5.002 0 0 1-4.9-4H21l-3-5z"/></svg>
